X:1
T:Title
%%score { ( 1 3 ) | ( 2 4 ) }
L:1/8
M:4/4
K:F
V:1 treble nm="Grand Piano"
V:3 treble 
V:2 bass 
V:4 bass 
V:1
 z4 z2[Q:1/4=106] C2 | F>F F>G A2 F2 | c6 [Fd]2 | c2 A2 G2 F2 |[M:3/4] [EG]6 |[M:1/4] C2 | %6
[M:4/4] F>F F>G A2 F2 | c6 A2 | G2 G2 A2 [F=B]2 | c2- [Bc-]2 [Ac]2 G2 | c>c c>c c4 | %11
 [FA]>[FA] [EA]>[EG] F4 | c2 c>c c2 A>G | F2 A2 [EG]4 | [CF]>[CF] [EG]>[EG] A4 | A>A B>B c4 | %16
 d2 d>d c>A F>G | A2 [EG]2 [CF]4 |] %18
V:2
 z4 z2 [F,A,]2 | [F,A,C]>[F,A,C] [F,A,C]>[F,A,C] [F,CF]2 [F,A,]2 | [F,A,F]6 [B,,B,]2 | %3
 [F,A,F]2 [F,CF]2 [G,CE]2 [G,=B,D]2 |[M:3/4] [C,C]6 |[M:1/4] [C,B,]2 | %6
[M:4/4] [F,A,C]>[F,A,C] [F,A,C]>[F,B,C] [F,CF]2 [F,A,]2 | [F,A,F]6 [F,CF]2 | %8
 [G,CE]2 [G,CE]2 [G,=B,F]2[K:bass] [G,,G,]2 | C,2- [C,-D]2 [C,C]2 B,2 | %10
 [F,A,F]>[F,A,F] [F,A,F]>[F,A,F] [F,A,F]4 | [C,C]>[C,C] [C,C]>[C,B,] [F,A,]4 | %12
 [F,A,F]2 [F,A,F]>[F,A,F] [F,A,F]2 [F,CF]>[F,B,E] | [F,A,]2 [F,CF]2 [C,C]4 | %14
 [F,A,]>[F,A,] [C,C]>[C,C][K:treble] [F,CF]4 | [F,CF]>[F,CF] [G,CE]>[G,CE] [A,CF]4 | %16
 [B,F]2 [B,F]>[B,F] [A,CF]>[F,CF] [B,D]>[B,^CF] | [CF]2[K:bass] [C,B,]2 [F,A,]4 |] %18
V:3
 x8 | x8 | x8 | x8 |[M:3/4] x6 |[M:1/4] x2 |[M:4/4] x8 | x8 | x8 | F2 z2 z4 | x8 | x8 | x8 | x8 | %14
 x8 | x8 | x8 | x8 |] %18
V:4
 x8 | x8 | x8 | x8 |[M:3/4] x6 |[M:1/4] x2 |[M:4/4] x8 | x8 | x6[K:bass] x2 | G,2 z2 z4 | x8 | x8 | %12
 x8 | x8 | x4[K:treble] x4 | x8 | x8 | x2[K:bass] x6 |] %18

